images/widgets.svg

<svg xmlns="http://www.w3.org/2000/svg" xmlns:xlink="http://www.w3.org/1999/xlink" width="24" height="24" xmlns:v="https://vecta.io/nano"><defs><path d="M12 14.4V24h9.6v-9.6H12zM0 24h9.6v-9.6H0V24zM0 2.4V12h9.6V2.4H0zM16.392.828L9.6 7.608l6.792 6.792 6.792-6.792-6.792-6.78z" id="A"/></defs><g fill-rule="evenodd"><mask id="B" fill="#fff"><use xlink:href="#A"/></mask><use fill="#111" fill-rule="nonzero" xlink:href="#A"/><g mask="url(#B)" fill="#dbe5ff"><path d="M0 0h24v24H0z"/></g></g></svg>

<?xml version="1.0" encoding="UTF-8"?>
<svg width="24px" height="24px" viewBox="0 0 24 24" version="1.1" xmlns="http://www.w3.org/2000/svg" xmlns:xlink="http://www.w3.org/1999/xlink">
    <title>nav/icon copy 3</title>
    <defs>
        <path d="M12,14.4 L12,24 L21.6,24 L21.6,14.4 L12,14.4 Z M9.76996262e-14,24 L9.6,24 L9.6,14.4 L9.76996262e-14,14.4 L9.76996262e-14,24 Z M9.76996262e-14,2.4 L9.76996262e-14,12 L9.6,12 L9.6,2.4 L9.76996262e-14,2.4 Z M16.392,0.828 L9.6,7.608 L16.392,14.4 L23.184,7.608 L16.392,0.828 Z" id="path-1"></path>
    </defs>
    <g id="Page-1" stroke="none" stroke-width="1" fill="none" fill-rule="evenodd">
        <g id="Desktop-HD" transform="translate(-20.000000, -310.000000)">
            <g id="color/light-orange" transform="translate(20.000000, 310.000000)">
                <mask id="mask-2" fill="white">
                    <use xlink:href="#path-1"></use>
                </mask>
                <use id="Mask" fill="#111111" fill-rule="nonzero" xlink:href="#path-1"></use>
                <g id="Group" mask="url(#mask-2)" fill="#DBE5FF">
                    <g id="color/white">
                        <rect id="Rectangle-Copy-2" x="0" y="0" width="24" height="24"></rect>
                    </g>
                </g>
            </g>
        </g>
    </g>
</svg>
